images/icons/logos_discord.svg

<svg width="27" height="30" viewBox="0 0 27 30" fill="none" xmlns="http://www.w3.org/2000/svg">
<g clip-path="url(#clip0)">
<path d="M23.1411 0H3.07065C1.37805 0 0 1.37795 0 3.0855V23.3358C0 25.0434 1.37795 26.4213 3.07055 26.4213H20.0557L19.2617 23.6504L21.179 25.4327L22.9913 27.1103L26.2116 29.9561V3.0855C26.2116 1.37795 24.8337 0 23.1411 0ZM17.3596 19.5614C17.3596 19.5614 16.8204 18.9173 16.371 18.3481C18.3332 17.7939 19.082 16.5657 19.082 16.5657C18.4679 16.9702 17.8838 17.2548 17.3596 17.4494C16.6107 17.764 15.8917 17.9736 15.1878 18.0935C13.7498 18.3631 12.4318 18.2882 11.3085 18.0785C10.4546 17.9137 9.72072 17.6741 9.10669 17.4345C8.76215 17.2997 8.38771 17.1349 8.01317 16.9252C7.96833 16.8952 7.92338 16.8803 7.87843 16.8503C7.84853 16.8353 7.83348 16.8204 7.81853 16.8054C7.54894 16.6556 7.39915 16.5508 7.39915 16.5508C7.39915 16.5508 8.11812 17.7491 10.0203 18.3181C9.57102 18.8874 9.01679 19.5613 9.01679 19.5613C5.70655 19.4565 4.4485 17.2847 4.4485 17.2847C4.4485 12.4618 6.60532 8.55246 6.60532 8.55246C8.76215 6.93481 10.8141 6.97976 10.8141 6.97976L10.9639 7.15956C8.26792 7.93823 7.02471 9.12164 7.02471 9.12164C7.02471 9.12164 7.3542 8.94195 7.90833 8.68731C9.51102 7.98328 10.7842 7.78864 11.3085 7.74369C11.3983 7.72864 11.4732 7.71369 11.5631 7.71369C12.5668 7.58293 13.5826 7.5729 14.5887 7.68379C16.0115 7.84854 17.5394 8.26792 19.097 9.12164C19.097 9.12164 17.9138 7.99833 15.3675 7.21946L15.5772 6.97987C15.5772 6.97987 17.6291 6.93481 19.786 8.55256C19.786 8.55256 21.9429 12.4618 21.9429 17.2847C21.9429 17.2847 20.6697 19.4565 17.3596 19.5613V19.5614ZM10.3947 12.5666C9.54102 12.5666 8.8671 13.3155 8.8671 14.2291C8.8671 15.1428 9.55597 15.8917 10.3947 15.8917C11.2486 15.8917 11.9225 15.1428 11.9225 14.2291C11.9375 13.3155 11.2486 12.5666 10.3948 12.5666H10.3947ZM15.8618 12.5666C15.008 12.5666 14.334 13.3155 14.334 14.2291C14.334 15.1428 15.023 15.8917 15.8618 15.8917C16.7155 15.8917 17.3895 15.1428 17.3895 14.2291C17.3895 13.3155 16.7155 12.5666 15.8618 12.5666Z" fill="#7289DA"/>
</g>
<defs>
<clipPath id="clip0">
<rect width="26.2116" height="30" fill="white"/>
</clipPath>
</defs>
</svg>

<svg width="27" height="30" fill="none" xmlns="http://www.w3.org/2000/svg"><g clip-path="url(#clip0)"><path d="M23.141 0H3.071A3.078 3.078 0 000 3.086v20.25a3.078 3.078 0 003.07 3.085h16.986l-.794-2.77 1.917 1.782 1.812 1.677 3.22 2.846V3.086A3.078 3.078 0 0023.142 0zM17.36 19.561s-.54-.644-.989-1.213c1.962-.554 2.711-1.782 2.711-1.782a8.56 8.56 0 01-1.722.883 9.86 9.86 0 01-2.172.644c-1.438.27-2.756.195-3.88-.015a12.576 12.576 0 01-2.201-.643 8.781 8.781 0 01-1.094-.51c-.045-.03-.09-.045-.135-.075a.207.207 0 01-.06-.045c-.27-.15-.419-.254-.419-.254s.72 1.198 2.621 1.767c-.449.57-1.003 1.243-1.003 1.243-3.31-.105-4.568-2.276-4.568-2.276 0-4.823 2.156-8.733 2.156-8.733 2.157-1.617 4.21-1.572 4.21-1.572l.149.18c-2.696.778-3.94 1.962-3.94 1.962s.33-.18.884-.435c1.603-.704 2.876-.898 3.4-.943.09-.015.165-.03.255-.03a12.21 12.21 0 017.534 1.408s-1.183-1.124-3.73-1.903l.21-.24s2.052-.044 4.209 1.574c0 0 2.157 3.909 2.157 8.732 0 0-1.273 2.171-4.583 2.276zm-6.965-6.994c-.854 0-1.528.748-1.528 1.662 0 .914.689 1.663 1.528 1.663.854 0 1.527-.75 1.527-1.663.015-.913-.673-1.662-1.527-1.662zm5.467 0c-.854 0-1.528.748-1.528 1.662 0 .914.689 1.663 1.528 1.663.853 0 1.528-.75 1.528-1.663s-.675-1.662-1.528-1.662z" fill="#7289DA"/></g><defs><clipPath id="clip0"><path fill="#fff" d="M0 0h26.212v30H0z"/></clipPath></defs></svg>
